X: 1
T: Walking Up Town
%O: from Viola Ruth
B: Lee Owens "Advanced Square Dance Figures of the West and Southwest" p.134
N: Added "obvious" G7 chord in bar 15.
R: reel
Z: 2010 John Chambers <jc:trillian.mit.edu>
M: 2/4
L: 1/16
K: C
"C"(GuF) |\
vE2G2 c2f2 | e3^d e(=duc2) | "F"A2^GA d(cuA2) | "C"G6 (uGF) |
vE2G2 c2f2 | ve3^d e(=dc2) | "D7"vd^cde v^fdef | "G"vg6 (uGF) |
"C"vE2G2 c2f2 | e3^d e(=dc2) | "F"A^GA2 d(cuA2) | "C"G6 (GF) |
E2G2 c2f2 | "A7"e3^d e(=dc2) | "D7"dedc "G7"BGAB | "C"vc6 z2 ||
vg^fg^g a(gue2) | c4 e4 | "F"A^GA2 d(cuA2) | "C"G6 z2 |
vg^fg^g a(gue2) | c4 e4 | "D7"d^cde ^fdef | "G"vg4- g4 |
vg^fg^g a(gue2) | c4 e4 | "F"A^GA2 d(cuA2) | "C"vG6 (uGF) |
vE2G2 c2f2 |"A7"e3^d e(=duc2) | "D7"vdedc "G"BGAB | "C"vc6 |]
